X:420
T:The Green Route
C:Dave Wiesler, 2018
N:For the dance "The Road not taken" by Anna Rain
L:1/4
M:3/2
R:Triple-time
%%MIDI gchord fcHcfc
%%MIDI beat 100 95 80
%%MIDI program 71       % Clarinet
%%MIDI chordprog 24     % Acoustic Guitar (nylon)
%%MIDI bassprog 32      % Acoustic Bass
S:Colin Hume's website,  colinhume.com  - chords can also be printed below the stave.
Q:1/2=112
%%MIDI ratio 3 1
K:Gm
P:A
|: "Gm"b/a/g/^f/ gd/c/ "Cm"B/A/G | "D"^FD2A FA | "Bb"dF cF BF | "F"AF2A/B/ cB/A/ |
"Gm"BD AD GD | "D"^FD2F/G/ AG/F/ | "Gm"GD AD BD |1 "Cm"c/d/e ga/g/ "D"^f/g/a :|2 "Cm"c/d/e "D7"d/c/B/A/ "Gm"G2 ||
P:B
"F"A2 f3e | "Bb"d>c B3d | "Cm"c2a3g | "D"^f>=e d3d |
"D"d2 a3d | "Gm"b>a g^f g2 | "F/A"f>e dc "Bb"d2 | "Cm"c>B AG "A7/C#"^FG |
"D"A2 d3c | "G"=B>A G3d | "G/B"d2 g3f | "C"=e>d c3g |
"C/E"g2 a3b | "F"a2- "F7/Eb"ag/a/ "Bb/D"b2 | "Eb"g/f/e/d/ ee/d/ "Cm"c/B/A | "Gm/D"B>A "D"G^F "Gm"G2 |]

